X: 1958
T: Art's
R: jig
M: 6/8
K: Ddorian
|:~D3 AGF|~E3 GEC|~D3 AGF|EGE D3|
~D3 AGF|~E3 GEC|D2D AGF|1 EGE D3:|2 EGE D2G||
|:Add dcd|ede cAG|Add dcd|ecc c2G|
Add dcd|ede cAG|FEF GFG|1 ADD D2G:|2 ADD D3||

